public/images/hashed/eea22f687d4b57e0cdca844bb78ae253.svg

<svg xmlns="http://www.w3.org/2000/svg" width="80" height="80"><defs><linearGradient id="a" x1="0%" x2="100%" y1="100%" y2="0%"><stop offset="0%" stop-color="#1B660F"/><stop offset="100%" stop-color="#6CAE3E"/></linearGradient></defs><g fill="none" fill-rule="evenodd"><path fill="url(#a)" d="M0 0h80v80H0z"/><path fill="#FFF" d="M36 19h8v-2h-8v2Zm19 19v-8H26v12h18v2H25a1 1 0 0 1-1-1V29a1 1 0 0 1 1-1h31a1 1 0 0 1 1 1v9h-2ZM17.928 55h22.047v2H17.928C14.659 57 12 54.24 12 50.847V19.154C12 15.761 14.659 13 17.928 13h44.144C65.341 13 68 15.761 68 19.154V43h-2V19.154C66 16.864 64.238 15 62.072 15H17.928C15.762 15 14 16.864 14 19.154v31.693C14 53.137 15.762 55 17.928 55Zm1.567-5H40v2H19.495A3.491 3.491 0 0 1 16 48.52V20.481A3.492 3.492 0 0 1 19.495 17H31c.459 0 .858.313.97.758L32.781 21h14.438l.811-3.242c.112-.445.511-.758.97-.758h11.505A3.492 3.492 0 0 1 64 20.481V39h-2V20.481A1.49 1.49 0 0 0 60.505 19H49.781l-.811 3.243A1 1 0 0 1 48 23H32a1 1 0 0 1-.97-.757L30.219 19H19.495A1.49 1.49 0 0 0 18 20.481V48.52c0 .816.671 1.48 1.495 1.48Zm36.219 7.387a3.677 3.677 0 0 1-3.672-3.673 3.676 3.676 0 0 1 3.672-3.672 3.676 3.676 0 0 1 3.672 3.672 3.677 3.677 0 0 1-3.672 3.673Zm0-9.345a5.678 5.678 0 0 0-5.672 5.672 5.679 5.679 0 0 0 5.672 5.673 5.679 5.679 0 0 0 5.672-5.673 5.678 5.678 0 0 0-5.672-5.672Zm10.681 6.935-.882-.05c-.463-.019-.925.301-1.033.779a8.882 8.882 0 0 1-1.159 2.801c-.26.413-.184.954.18 1.28l.658.587-1.786 1.786-.584-.655a.996.996 0 0 0-1.28-.18 8.89 8.89 0 0 1-2.804 1.162.998.998 0 0 0-.778 1.033l.05.875h-2.526l.05-.876a1 1 0 0 0-.777-1.033 8.915 8.915 0 0 1-2.803-1.163.997.997 0 0 0-1.28.179l-.586.658-1.785-1.786.656-.585a1 1 0 0 0 .179-1.28 8.926 8.926 0 0 1-1.16-2.803c-.107-.478-.585-.802-1.032-.779l-.88.05v-2.525l.884.05c.468.021.924-.301 1.032-.777a8.91 8.91 0 0 1 1.162-2.798 1.002 1.002 0 0 0-.179-1.281l-.663-.591 1.786-1.786.591.662a1 1 0 0 0 1.279.18 8.89 8.89 0 0 1 2.799-1.158 1 1 0 0 0 .777-1.033l-.05-.886h2.526l-.05.888a.999.999 0 0 0 .777 1.032 8.882 8.882 0 0 1 2.796 1.159c.412.26.953.184 1.28-.18l.593-.664 1.786 1.786-.661.59a1 1 0 0 0-.179 1.28 8.909 8.909 0 0 1 1.16 2.799c.108.477.565.799 1.033.778l.883-.05v2.525Zm1.686-4.311a.989.989 0 0 0-.743-.271l-1.128.064a10.803 10.803 0 0 0-.773-1.864l.843-.752a1.002 1.002 0 0 0 .041-1.453l-3.282-3.284a.95.95 0 0 0-.735-.292 1.003 1.003 0 0 0-.718.333l-.756.848a10.891 10.891 0 0 0-1.86-.772l.063-1.132a.998.998 0 0 0-.998-1.057h-4.642a.994.994 0 0 0-.727.314.995.995 0 0 0-.271.743l.063 1.131c-.644.199-1.266.457-1.861.771l-.755-.846a1.005 1.005 0 0 0-1.453-.041l-3.283 3.284a1.002 1.002 0 0 0 .041 1.453l.845.754a11.01 11.01 0 0 0-.773 1.862l-1.129-.064a.985.985 0 0 0-.743.271.997.997 0 0 0-.314.727v4.643a.997.997 0 0 0 1.057.998l1.124-.064c.199.646.458 1.27.773 1.868l-.84.748a1.004 1.004 0 0 0-.041 1.454l3.283 3.282c.194.195.475.304.735.293.275-.008.534-.129.718-.334l.749-.84c.598.317 1.222.576 1.867.775l-.063 1.122a.998.998 0 0 0 .998 1.057h4.642a.998.998 0 0 0 .998-1.057l-.063-1.12c.645-.2 1.27-.459 1.869-.775l.747.838a1 1 0 0 0 .718.334.962.962 0 0 0 .735-.293l3.282-3.282a1 1 0 0 0-.041-1.454l-.841-.75c.316-.598.574-1.222.773-1.866l1.126.064a1.001 1.001 0 0 0 1.057-.998v-4.643c0-.275-.114-.538-.314-.727Z"/></g></svg>

<?xml version="1.0" encoding="UTF-8"?>
<svg width="80px" height="80px" viewBox="0 0 80 80" version="1.1" xmlns="http://www.w3.org/2000/svg" xmlns:xlink="http://www.w3.org/1999/xlink">
    <!-- Generator: Sketch 64 (93537) - https://sketch.com -->
    <title>Icon-Architecture/64/Arch_AWS-Snowball-Edge_64</title>
    <desc>Created with Sketch.</desc>
    <defs>
        <linearGradient x1="0%" y1="100%" x2="100%" y2="0%" id="linearGradient-1">
            <stop stop-color="#1B660F" offset="0%"></stop>
            <stop stop-color="#6CAE3E" offset="100%"></stop>
        </linearGradient>
    </defs>
    <g id="Icon-Architecture/64/Arch_AWS-Snowball-Edge_64" stroke="none" stroke-width="1" fill="none" fill-rule="evenodd">
        <g id="Icon-Architecture-BG/64/Storage" fill="url(#linearGradient-1)">
            <rect id="Rectangle" x="0" y="0" width="80" height="80"></rect>
        </g>
        <path d="M36,19 L44,19 L44,17 L36,17 L36,19 Z M55,38 L55,30 L26,30 L26,42 L44,42 L44,44 L25,44 C24.447,44 24,43.553 24,43 L24,29 C24,28.448 24.447,28 25,28 L56,28 C56.553,28 57,28.448 57,29 L57,38 L55,38 Z M17.928,55 L39.975,55 L39.975,57 L17.928,57 C14.659,57 12,54.24 12,50.847 L12,19.154 C12,15.761 14.659,13 17.928,13 L62.072,13 C65.341,13 68,15.761 68,19.154 L68,43 L66,43 L66,19.154 C66,16.864 64.238,15 62.072,15 L17.928,15 C15.762,15 14,16.864 14,19.154 L14,50.847 C14,53.137 15.762,55 17.928,55 L17.928,55 Z M19.495,50 L40,50 L40,52 L19.495,52 C17.568,52 16,50.439 16,48.52 L16,20.481 C16,18.562 17.568,17 19.495,17 L31,17 C31.459,17 31.858,17.313 31.97,17.758 L32.781,21 L47.219,21 L48.03,17.758 C48.142,17.313 48.541,17 49,17 L60.505,17 C62.432,17 64,18.562 64,20.481 L64,39 L62,39 L62,20.481 C62,19.665 61.329,19 60.505,19 L49.781,19 L48.97,22.243 C48.858,22.688 48.459,23 48,23 L32,23 C31.541,23 31.142,22.688 31.03,22.243 L30.219,19 L19.495,19 C18.671,19 18,19.665 18,20.481 L18,48.52 C18,49.336 18.671,50 19.495,50 L19.495,50 Z M55.714,57.387 C53.689,57.387 52.042,55.739 52.042,53.714 C52.042,51.689 53.689,50.042 55.714,50.042 C57.738,50.042 59.386,51.689 59.386,53.714 C59.386,55.739 57.738,57.387 55.714,57.387 L55.714,57.387 Z M55.714,48.042 C52.586,48.042 50.042,50.587 50.042,53.714 C50.042,56.842 52.586,59.387 55.714,59.387 C58.842,59.387 61.386,56.842 61.386,53.714 C61.386,50.587 58.842,48.042 55.714,48.042 L55.714,48.042 Z M66.395,54.977 L65.513,54.927 C65.05,54.908 64.588,55.228 64.48,55.706 C64.257,56.699 63.867,57.642 63.321,58.507 C63.061,58.92 63.137,59.461 63.501,59.787 L64.159,60.374 L62.373,62.16 L61.789,61.505 C61.463,61.138 60.921,61.063 60.509,61.325 C59.645,61.872 58.701,62.262 57.705,62.487 C57.228,62.594 56.898,63.031 56.927,63.52 L56.977,64.395 L54.451,64.395 L54.501,63.519 C54.529,63.03 54.2,62.594 53.724,62.486 C52.729,62.261 51.787,61.87 50.921,61.323 C50.508,61.061 49.966,61.136 49.641,61.502 L49.055,62.16 L47.27,60.374 L47.926,59.789 C48.29,59.463 48.366,58.922 48.105,58.509 C47.56,57.645 47.17,56.702 46.945,55.706 C46.838,55.228 46.36,54.904 45.913,54.927 L45.033,54.977 L45.033,52.452 L45.917,52.502 C46.385,52.523 46.841,52.201 46.949,51.725 C47.174,50.732 47.565,49.791 48.111,48.927 C48.372,48.513 48.296,47.972 47.932,47.646 L47.269,47.055 L49.055,45.269 L49.646,45.931 C49.972,46.295 50.513,46.371 50.925,46.111 C51.787,45.567 52.729,45.177 53.724,44.953 C54.2,44.845 54.529,44.408 54.501,43.92 L54.451,43.034 L56.977,43.034 L56.927,43.922 C56.898,44.41 57.228,44.846 57.704,44.954 C58.696,45.178 59.638,45.568 60.5,46.113 C60.912,46.373 61.453,46.297 61.78,45.933 L62.373,45.269 L64.159,47.055 L63.498,47.645 C63.134,47.97 63.058,48.512 63.319,48.925 C63.863,49.787 64.254,50.728 64.479,51.724 C64.587,52.201 65.044,52.523 65.512,52.502 L66.395,52.452 L66.395,54.977 Z M68.081,50.666 C67.882,50.478 67.617,50.378 67.338,50.395 L66.21,50.459 C66.011,49.814 65.752,49.191 65.437,48.595 L66.28,47.843 C66.485,47.66 66.606,47.4 66.614,47.125 C66.622,46.85 66.516,46.584 66.321,46.39 L63.039,43.106 C62.844,42.911 62.585,42.796 62.304,42.814 C62.029,42.822 61.77,42.942 61.586,43.147 L60.83,43.995 C60.233,43.68 59.612,43.422 58.97,43.223 L59.033,42.091 C59.049,41.816 58.951,41.547 58.762,41.347 C58.573,41.147 58.311,41.034 58.035,41.034 L53.393,41.034 C53.117,41.034 52.854,41.147 52.666,41.348 C52.477,41.547 52.379,41.816 52.395,42.091 L52.458,43.222 C51.814,43.421 51.192,43.679 50.597,43.993 L49.842,43.147 C49.658,42.942 49.398,42.822 49.124,42.814 C48.867,42.799 48.583,42.912 48.389,43.106 L45.106,46.39 C44.912,46.584 44.806,46.85 44.813,47.125 C44.821,47.4 44.942,47.66 45.147,47.843 L45.992,48.597 C45.678,49.193 45.419,49.816 45.219,50.459 L44.09,50.395 C43.812,50.377 43.545,50.478 43.347,50.666 C43.146,50.855 43.033,51.118 43.033,51.393 L43.033,56.036 C43.033,56.311 43.146,56.574 43.347,56.763 C43.545,56.952 43.813,57.048 44.09,57.034 L45.214,56.97 C45.413,57.616 45.672,58.24 45.987,58.838 L45.147,59.586 C44.942,59.77 44.821,60.029 44.813,60.304 C44.806,60.579 44.912,60.845 45.106,61.04 L48.389,64.322 C48.583,64.517 48.864,64.626 49.124,64.615 C49.399,64.607 49.658,64.486 49.842,64.281 L50.591,63.441 C51.189,63.758 51.813,64.017 52.458,64.216 L52.395,65.338 C52.379,65.613 52.477,65.882 52.666,66.082 C52.854,66.282 53.117,66.395 53.393,66.395 L58.035,66.395 C58.311,66.395 58.573,66.282 58.762,66.082 C58.951,65.882 59.049,65.613 59.033,65.338 L58.97,64.218 C59.615,64.018 60.24,63.759 60.839,63.443 L61.586,64.281 C61.769,64.486 62.028,64.607 62.304,64.615 C62.588,64.628 62.846,64.517 63.039,64.322 L66.321,61.04 C66.516,60.845 66.622,60.579 66.614,60.304 C66.606,60.029 66.485,59.77 66.28,59.586 L65.439,58.836 C65.755,58.238 66.013,57.614 66.212,56.97 L67.338,57.034 C67.616,57.047 67.882,56.951 68.081,56.763 C68.281,56.574 68.395,56.311 68.395,56.036 L68.395,51.393 C68.395,51.118 68.281,50.855 68.081,50.666 L68.081,50.666 Z" id="Fill-1" fill="#FFFFFF"></path>
    </g>
</svg>
